X: 01006
T: The BEAUX OF THE LOCH
C: Bob McQuillen Apr 73
B: Bob's Note Book 1 #6
%R: reel
Z: 2019 John Chambers <jc:trillian.mit.edu>
M: C
L: 1/8
K: G
DE \
| G2BG AGEF | G2BG AGEF | GBde dcBA | Beed e2DE |
| G2BG AGEG | GABG AGEF | GBde dcBA | GEED E2 :|
|: EF \
| G2GA BAGA | B2e2 e2ge | d2A2 ABAG | FGAB A2EF |
| G2GA BAGA | Beed efge | d2A2 ABAG | F2D2 D2 :|
%%begintext align
%% To THE BOYS OF THE LOUGH
%% Aly Bain, Dave Richardson, Robin
%% Morton, + Cathal McConnell. Best
%% Wishes always to you all, and _THANKS_!
%%endtext

%%sep 1 1 500

%%sep 1 1 500

